2 Export/Icons/Brands/Twitter.svg

<svg xmlns="http://www.w3.org/2000/svg" xmlns:xlink="http://www.w3.org/1999/xlink" width="24" height="24" viewBox="0 0 24 24">
  <defs>
    <path id="twitter-a" d="M20.9647515,6.74217741 C20.3010291,7.03391525 19.5923087,7.23265697 18.8460897,7.32340319 C19.6065581,6.86517228 20.1915337,6.14295238 20.4682722,5.28123828 C19.7550519,5.69747094 18.9645848,6.00045831 18.1231199,6.16920128 C17.4511479,5.44998125 16.4934378,5 15.4299821,5 C13.392317,5 11.7401358,6.65218116 11.7401358,8.68759635 C11.7401358,8.98008416 11.7738844,9.26132244 11.8353819,9.53056123 C8.76800967,9.38581726 6.04937294,7.91287863 4.22994875,5.68622141 C3.9097121,6.22769885 3.73046956,6.85692263 3.73046956,7.54239407 C3.73046956,8.82484063 4.38294238,9.95204366 5.37140119,10.6142661 C4.76617641,10.5947669 4.19695013,10.4282738 3.70047081,10.1522853 L3.70047081,10.1980334 C3.70047081,11.9867089 4.97016791,13.4783967 6.65984751,13.8181326 C6.35011041,13.9013791 6.02312404,13.9463772 5.687888,13.9463772 C5.45239782,13.9463772 5.22665722,13.9238782 5.00091663,13.8818799 C5.47414691,15.3465689 6.83459023,16.4145244 8.45377276,16.4445231 C7.19382526,17.4337319 5.59714179,18.0232074 3.87746344,18.0232074 C3.58497563,18.0232074 3.29323778,18.0059581 3,17.9729595 C4.6416816,19.0184159 6.57585101,19.6296404 8.66751385,19.6296404 C15.4577309,19.6296404 19.1663264,14.0078747 19.1663264,9.14057748 C19.1663264,8.98383401 19.1663264,8.8255906 19.1550769,8.66809716 C19.8757968,8.15136869 20.5050206,7.49814591 21,6.75717678 L20.9647515,6.74217741 Z"/>
  </defs>
  <g fill="none" fill-rule="evenodd">
    <polygon points="0 0 24 0 24 24 0 24"/>
    <mask id="twitter-b" fill="#fff">
      <use xlink:href="#twitter-a"/>
    </mask>
    <use fill="#000" xlink:href="#twitter-a"/>
    <g fill="#000" mask="url(#twitter-b)">
      <rect width="24" height="24"/>
    </g>
  </g>
</svg>

<svg xmlns="http://www.w3.org/2000/svg" xmlns:xlink="http://www.w3.org/1999/xlink" width="24" height="24" viewBox="0 0 24 24">
  <defs>
    <path id="twitter-a" d="M20.965 6.742a7.5 7.5 0 0 1-2.119.581 3.718 3.718 0 0 0 1.622-2.042 7.622 7.622 0 0 1-2.345.888 3.69 3.69 0 0 0-6.288 3.361A10.45 10.45 0 0 1 4.23 5.687c-.32.542-.5 1.17-.5 1.856a3.69 3.69 0 0 0 1.641 3.072 3.678 3.678 0 0 1-1.67-.462v.046c0 1.789 1.27 3.28 2.959 3.62a3.747 3.747 0 0 1-1.66.064 3.702 3.702 0 0 0 3.454 2.563 7.4 7.4 0 0 1-4.577 1.578c-.292 0-.584-.017-.877-.05a10.496 10.496 0 0 0 5.668 1.657c6.79 0 10.498-5.622 10.498-10.49 0-.156 0-.314-.01-.472A7.452 7.452 0 0 0 21 6.758l-.035-.016z"/>
  </defs>
  <g fill="none" fill-rule="evenodd">
    <polygon points="0 0 24 0 24 24 0 24"/>
    <mask id="twitter-b" fill="#fff">
      <use xlink:href="#twitter-a"/>
    </mask>
    <use fill="#000" xlink:href="#twitter-a"/>
    <g fill="#000" mask="url(#twitter-b)">
      <rect width="24" height="24"/>
    </g>
  </g>
</svg>
